resources/icons/20px/array-boolean.svg

<?xml version="1.0" encoding="UTF-8"?>
<svg width="20px" height="20px" viewBox="0 0 20 20" version="1.1" xmlns="http://www.w3.org/2000/svg" xmlns:xlink="http://www.w3.org/1999/xlink">
    <title>array-boolean</title>
    <g stroke-width="1" fill-rule="evenodd">
        <path d="M19,0 C19.5128358,0 19.9355072,0.38604019 19.9932723,0.883378875 L20,1 L20,19 C20,19.5128358 19.6139598,19.9355072 19.1166211,19.9932723 L19,20 L15,20 C14.4477153,20 14,19.5522847 14,19 C14,18.4871642 14.3860402,18.0644928 14.8833789,18.0067277 L15,18 L18,18 L18,2 L15,2 C14.4871642,2 14.0644928,1.61395981 14.0067277,1.11662113 L14,1 C14,0.487164161 14.3860402,0.0644928393 14.8833789,0.00672773132 L15,0 L19,0 Z M5,0 C5.55228475,0 6,0.44771525 6,1 C6,1.51283584 5.61395981,1.93550716 5.11662113,1.99327227 L5,2 L2,2 L2,18 L5,18 C5.51283584,18 5.93550716,18.3860402 5.99327227,18.8833789 L6,19 C6,19.5128358 5.61395981,19.9355072 5.11662113,19.9932723 L5,20 L1,20 C0.487164161,20 0.0644928393,19.6139598 0.00672773133,19.1166211 L0,19 L0,1 C0,0.487164161 0.38604019,0.0644928393 0.883378875,0.00672773133 L1,0 L5,0 Z M15,7 C15.5128358,7 15.9355072,7.38604019 15.9932723,7.88337887 L16,8 L16,12 C16,12.5128358 15.6139598,12.9355072 15.1166211,12.9932723 L15,13 L5,13 C4.48716416,13 4.06449284,12.6139598 4.00672773,12.1166211 L4,12 L4,8 C4,7.48716416 4.38604019,7.06449284 4.88337887,7.00672773 L5,7 L15,7 Z M15,8 L10,8 L10,12 L15,12 L15,8 Z"></path>
    </g>
</svg>

<svg xmlns="http://www.w3.org/2000/svg" viewBox="0 0 20 20">
  <path d="M19 0a1 1 0 0 1 .993.883L20 1v18a1 1 0 0 1-.883.993L19 20h-4a1 1 0 0 1-.117-1.993L15 18h3V2h-3a1 1 0 0 1-.993-.883L14 1a1 1 0 0 1 .883-.993L15 0zM5 0a1 1 0 0 1 .117 1.993L5 2H2v16h3a1 1 0 0 1 .993.883L6 19a1 1 0 0 1-.883.993L5 20H1a1 1 0 0 1-.993-.883L0 19V1A1 1 0 0 1 .883.007L1 0zm10 7a1 1 0 0 1 .993.883L16 8v4a1 1 0 0 1-.883.993L15 13H5a1 1 0 0 1-.993-.883L4 12V8a1 1 0 0 1 .883-.993L5 7zm0 1h-5v4h5z"/>
</svg>
